frontend/public/svg/interface/target-2.svg

<svg width="141" height="135" viewBox="0 0 141 135" fill="none" xmlns="http://www.w3.org/2000/svg">
<g clip-path="url(#clip0)">
<path d="M68.2494 121.509C61.6404 121.556 55.0578 120.675 48.6955 118.892C28.4992 113.083 15.4201 95.8168 15.4006 74.9035C15.4006 73.8164 15.4006 72.7299 15.4006 71.3754C12.6784 71.0912 10.1584 70.8586 7.65136 70.5551C6.22542 70.3813 4.80547 70.1371 3.40547 69.8239C2.73599 69.7231 2.12951 69.373 1.70756 68.8453C1.28562 68.3175 1.07919 67.6503 1.12967 66.9772C1.10653 66.6142 1.15598 66.2499 1.27494 65.9056C1.39389 65.5607 1.58003 65.2435 1.82276 64.971C2.0655 64.699 2.35981 64.4774 2.68896 64.3191C3.01811 64.161 3.37542 64.0694 3.7403 64.0495C5.39273 63.9244 7.05252 63.9267 8.7046 64.0566C11.2324 64.1431 13.7641 64.2814 16.4241 64.4042C16.9763 62.4741 17.4234 60.7837 17.9432 59.1159C22.1497 45.6256 29.129 33.9077 40.3043 24.9796C47.3692 19.338 55.3059 15.6368 64.4934 15.0212C65.3671 14.9624 66.2298 14.7449 67.5118 14.5317C67.5903 12.2406 67.6292 9.95911 67.7594 7.68478C67.7886 6.1453 67.9578 4.61163 68.2644 3.10251C68.7394 1.16471 69.9748 0.290102 71.5207 0.398618C72.3069 0.465391 73.0431 0.811706 73.5954 1.3743C74.1469 1.9369 74.4781 2.67839 74.5274 3.46365C74.7867 5.65336 74.8009 7.87274 74.9163 10.0799C74.9811 11.2813 75.0375 12.4833 75.1107 13.978C79.3503 14.4573 83.4939 14.9469 87.642 15.3913C97.9087 16.4894 106.878 20.3263 114.202 27.7223C121.383 34.9722 125.34 43.7995 127.114 53.71C127.289 54.688 127.453 55.6692 127.596 56.653C127.72 57.5056 127.806 58.3634 127.927 59.3659C129.807 59.3659 131.565 59.2774 133.307 59.3924C134.845 59.441 136.372 59.6808 137.851 60.1061C138.61 60.3213 139.276 60.7827 139.743 61.4174C140.209 62.0521 140.451 62.8238 140.428 63.6103C140.448 64.3954 140.202 65.1641 139.729 65.7926C139.257 66.4211 138.585 66.8719 137.823 67.0722C136.567 67.4836 135.256 67.6987 133.934 67.7091C132.059 67.7284 130.181 67.4882 128.106 67.3448C127.554 70.7346 127.28 74.14 126.405 77.3845C125.089 82.2639 123.739 87.1975 121.726 91.8147C115.662 105.718 104.637 114.026 90.2865 118.19C86.0502 119.417 81.6817 120.199 76.8698 121.3C76.7875 123.173 76.7402 125.341 76.5788 127.497C76.5328 128.92 76.3182 130.332 75.9397 131.705C75.7304 132.521 75.2358 133.234 74.5449 133.718C73.8533 134.201 73.0114 134.422 72.1714 134.341C71.3275 134.324 70.5147 134.02 69.8666 133.481C69.2184 132.942 68.7744 132.199 68.6066 131.374C68.3622 129.964 68.265 128.532 68.3156 127.101C68.3045 125.667 68.4452 124.232 68.486 122.797C68.4445 122.361 68.3655 121.931 68.2494 121.509ZM69.3669 111.943C69.4913 108.924 69.6183 105.862 69.7434 102.8C69.722 101.807 69.7674 100.813 69.8782 99.8255C70.2321 97.8199 71.461 96.7612 73.213 96.769C74.9999 96.7767 76.1944 97.7902 76.5542 99.8042C76.781 101.224 76.9275 102.655 76.9923 104.091C77.142 106.493 77.2308 108.9 77.3624 111.661C88.6201 110.213 98.866 107.075 106.653 98.7494C114.901 89.9292 117.607 78.9192 118.514 66.9914C115.857 66.8306 113.542 66.7809 111.251 66.5193C109.717 66.3733 108.211 66.0238 106.771 65.48C105.418 64.9341 104.905 63.6322 105.157 62.1659C105.226 61.5529 105.502 60.9817 105.941 60.5457C106.379 60.1099 106.952 59.8353 107.567 59.7671C108.774 59.6168 109.99 59.5467 111.206 59.5577C113.486 59.5279 115.766 59.5493 118.053 59.5493C117.706 49.5089 112.933 39.5959 105.933 33.4453C100.043 28.2714 92.9666 25.9918 85.4558 24.6799C82.125 24.0986 78.7689 23.6588 74.9046 23.0761C74.9046 25.5791 74.9545 27.5446 74.8891 29.5057C74.8994 31.0489 74.7581 32.5895 74.4684 34.1054C74.2649 35.0331 73.7425 35.8608 72.9913 36.445C72.2401 37.0293 71.3074 37.3336 70.3553 37.3048C69.4025 37.2761 68.4906 36.9161 67.7763 36.2877C67.062 35.6591 66.5908 34.8015 66.4444 33.8632C66.2888 32.8881 66.2635 31.8968 66.3698 30.9152C66.5694 27.993 66.8313 25.0752 67.1009 21.759C65.8714 21.8095 64.645 21.9281 63.4285 22.1143C57.8849 23.3362 52.6907 25.7921 48.2346 29.2983C36.9569 38.0759 30.3138 49.8105 26.6511 63.3926C26.6346 63.8809 26.6958 64.3688 26.8321 64.8379C28.9432 64.8379 30.9296 64.8095 32.9149 64.845C35.1302 64.8851 37.3509 64.9057 39.5565 65.084C41.1205 65.2132 42.4233 66.0942 42.5678 67.6903C42.667 68.7781 42.4018 70.2689 41.6921 70.9646C40.6843 71.8023 39.4341 72.2965 38.1241 72.3759C36.0207 72.4857 33.9122 72.4599 31.8122 72.2978C29.7382 72.217 27.6642 72.0691 25.4197 71.9412C24.8496 76.2832 25.1442 80.6956 26.2868 84.9245C30.8511 102.484 47.3723 113.278 69.3656 111.941L69.3669 111.943Z" fill="black"/>
<path d="M58.8057 65.3645C59.1134 63.5271 59.5371 61.7108 60.0741 59.9267C61.9764 54.7153 68.7753 51.8527 73.4711 54.6199C76.4137 56.415 78.736 59.0625 80.1276 62.2083C82.785 67.996 80.1859 73.9754 74.1206 76.0521C66.7764 78.5667 59.0785 73.1351 58.8057 65.3645Z" fill="black"/>
</g>
<defs>
<clipPath id="clip0">
<rect width="140" height="135" fill="white" transform="translate(0.777344)"/>
</clipPath>
</defs>
</svg>

<svg xmlns="http://www.w3.org/2000/svg" width="141" height="135" fill="none" viewBox="0 0 141 135"><g fill="#000" clip-path="url(#a)"><path d="M68.25 121.509a70.6 70.6 0 0 1-19.554-2.617C28.499 113.083 15.42 95.817 15.4 74.904v-3.529c-2.723-.284-5.243-.516-7.75-.82a44 44 0 0 1-4.246-.731 2.68 2.68 0 0 1-1.697-.979 2.67 2.67 0 0 1-.578-1.868 2.75 2.75 0 0 1 .693-2.006 2.77 2.77 0 0 1 1.917-.922 32 32 0 0 1 4.965.008c2.527.086 5.06.224 7.72.347.551-1.93.998-3.62 1.518-5.288C22.15 45.626 29.13 33.908 40.304 24.98c7.065-5.642 15.002-9.343 24.19-9.959.873-.059 1.736-.276 3.018-.49.078-2.29.117-4.572.247-6.846.03-1.54.199-3.073.505-4.582.475-1.938 1.71-2.813 3.257-2.704a3.3 3.3 0 0 1 2.074.975c.552.563.883 1.304.932 2.09.26 2.19.274 4.409.39 6.616.064 1.201.12 2.403.194 3.898 4.24.48 8.383.969 12.531 1.413 10.267 1.098 19.236 4.935 26.56 12.331 7.181 7.25 11.138 16.078 12.912 25.988.175.978.339 1.96.482 2.943.124.853.21 1.71.331 2.713 1.88 0 3.638-.089 5.38.026 1.538.049 3.065.289 4.544.714a3.55 3.55 0 0 1 1.892 1.311c.466.635.708 1.407.685 2.193a3.494 3.494 0 0 1-2.605 3.462 12.8 12.8 0 0 1-3.889.637c-1.875.02-3.753-.22-5.828-.364-.552 3.39-.826 6.795-1.701 10.04-1.316 4.879-2.666 9.813-4.679 14.43-6.064 13.903-17.089 22.211-31.44 26.375-4.236 1.227-8.604 2.009-13.416 3.11-.083 1.873-.13 4.041-.291 6.197a18 18 0 0 1-.64 4.208 3.53 3.53 0 0 1-1.394 2.013 3.55 3.55 0 0 1-2.374.623 3.72 3.72 0 0 1-2.304-.86 3.7 3.7 0 0 1-1.26-2.107 20.7 20.7 0 0 1-.291-4.273c-.011-1.434.13-2.869.17-4.304a7.6 7.6 0 0 0-.237-1.288m1.117-9.566.376-9.143a22 22 0 0 1 .135-2.974c.354-2.006 1.583-3.065 3.335-3.057 1.787.008 2.981 1.021 3.341 3.035q.34 2.132.438 4.287c.15 2.402.239 4.809.37 7.57 11.258-1.448 21.504-4.586 29.291-12.912 8.248-8.82 10.954-19.83 11.861-31.758-2.657-.16-4.972-.21-7.263-.472a17.3 17.3 0 0 1-4.48-1.039c-1.353-.546-1.866-1.848-1.614-3.314a2.7 2.7 0 0 1 .784-1.62 2.73 2.73 0 0 1 1.626-.779c1.207-.15 2.423-.22 3.639-.21 2.28-.03 4.56-.008 6.847-.008-.347-10.04-5.12-19.953-12.12-26.104-5.89-5.174-12.966-7.453-20.477-8.765-3.331-.581-6.687-1.021-10.551-1.604 0 2.503.05 4.469-.016 6.43a23.7 23.7 0 0 1-.42 4.6 4.07 4.07 0 0 1-1.478 2.339 4.09 4.09 0 0 1-5.215-.157 4.07 4.07 0 0 1-1.332-2.425 11 11 0 0 1-.074-2.948c.2-2.922.461-5.84.73-9.156q-1.845.076-3.671.355a37.7 37.7 0 0 0-15.194 7.184c-11.277 8.778-17.92 20.513-21.584 34.095-.016.488.045.976.181 1.445 2.111 0 4.098-.028 6.083.007 2.215.04 4.436.06 6.642.239 1.563.13 2.866 1.01 3.01 2.606.1 1.088-.165 2.579-.875 3.275a6.17 6.17 0 0 1-3.568 1.41 49 49 0 0 1-6.312-.077c-2.074-.081-4.148-.229-6.392-.357a33.2 33.2 0 0 0 .867 12.983c4.564 17.56 21.085 28.354 43.079 27.017z"/><path d="M58.806 65.365a44 44 0 0 1 1.268-5.438c1.902-5.212 8.701-8.074 13.397-5.307a16.9 16.9 0 0 1 6.657 7.588c2.657 5.788.058 11.767-6.007 13.844-7.345 2.515-15.042-2.917-15.315-10.687"/></g><defs><clipPath id="a"><path fill="#fff" d="M.777 0h140v135h-140z"/></clipPath></defs></svg>
